packages/core/src/svgs/tokens/mono/BSGG.svg

<svg width="24" height="24" viewBox="0 0 24 24" fill="none" xmlns="http://www.w3.org/2000/svg">
<path d="M12.6577 2.40527C12.5343 2.27864 12.387 2.17765 12.2246 2.1081C12.062 2.03856 11.8872 2.00182 11.7104 2.00001C11.5332 1.99943 11.3578 2.03508 11.1948 2.10477C11.0319 2.17446 10.885 2.27673 10.7631 2.40527L5.94203 7.40522C5.43318 7.93137 5.15154 8.63643 5.15782 9.36835C5.15984 10.1013 5.44232 10.8056 5.94729 11.3367L10.7631 16.3315C10.8857 16.4588 11.033 16.5601 11.1957 16.6293C11.3584 16.6984 11.5335 16.7341 11.7104 16.7341C11.8872 16.7341 12.0623 16.6984 12.2251 16.6293C12.3879 16.5601 12.535 16.4588 12.6577 16.3315C12.9119 16.0668 13.0537 15.7141 13.0537 15.3473C13.0537 14.9804 12.9119 14.6277 12.6577 14.363L8.52095 9.88416C8.38742 9.74588 8.31368 9.56057 8.31568 9.36835C8.31535 9.17646 8.38884 8.99177 8.52095 8.85257L12.6577 4.37894C12.9151 4.11433 13.0571 3.75852 13.0525 3.38947C13.0512 3.02308 12.9099 2.67101 12.6577 2.40527Z" fill="white"/>
<path d="M11.3421 7.66845C11.4655 7.54181 11.6127 7.44083 11.7753 7.37128C11.9379 7.30173 12.1127 7.265 12.2894 7.26319C12.4666 7.26261 12.6421 7.29826 12.8049 7.36794C12.9679 7.43764 13.1149 7.5399 13.2368 7.66845L18.0578 12.6684C18.5666 13.1946 18.8483 13.8996 18.8421 14.6315C18.84 15.3644 18.5575 16.0687 18.0525 16.6L13.2368 21.5946C13.1135 21.7215 12.9663 21.8227 12.8037 21.8922C12.6411 21.9618 12.4664 21.9984 12.2894 21.9999C12.1123 22.0005 11.9368 21.9648 11.7739 21.8951C11.611 21.8254 11.464 21.7232 11.3421 21.5946C11.086 21.3313 10.9442 20.9776 10.9474 20.6105C10.9486 20.244 11.0898 19.8919 11.3421 19.6262L15.4789 15.1473C15.6129 15.0094 15.6867 14.8239 15.6841 14.6315C15.6845 14.4396 15.611 14.2549 15.4789 14.1158L11.3421 9.64206C11.0848 9.37751 10.9428 9.02171 10.9474 8.65265C10.9486 8.28625 11.0898 7.93419 11.3421 7.66845Z" fill="white"/>
</svg>

<svg xmlns="http://www.w3.org/2000/svg" width="24" height="24" fill="none" viewBox="0 0 24 24">
    <path fill="#fff" d="M12.658 2.405A1.34 1.34 0 0 0 11.71 2a1.3 1.3 0 0 0-.947.405l-4.821 5a2.8 2.8 0 0 0-.784 1.963c.002.733.284 1.438.79 1.969l4.815 4.994a1.316 1.316 0 0 0 1.895 0 1.42 1.42 0 0 0 0-1.968L8.52 9.884a.747.747 0 0 1 0-1.032l4.137-4.473c.257-.265.4-.62.395-.99a1.44 1.44 0 0 0-.395-.984"/>
    <path fill="#fff" d="M11.342 7.668a1.34 1.34 0 0 1 .947-.405 1.3 1.3 0 0 1 .948.405l4.82 5a2.8 2.8 0 0 1 .785 1.964 2.87 2.87 0 0 1-.79 1.968l-4.815 4.995a1.34 1.34 0 0 1-.948.405 1.3 1.3 0 0 1-.947-.405 1.4 1.4 0 0 1-.395-.985c.002-.366.143-.718.395-.984l4.137-4.479a.73.73 0 0 0 .205-.515.75.75 0 0 0-.205-.516l-4.137-4.474c-.257-.264-.4-.62-.395-.99.002-.366.143-.718.395-.984"/>
</svg>
